X: 28744
T: My Heart's Full Of Cheer 'Cause My Belly's Full Of Porter
R: jig
M: 6/8
K: Dmajor
F>GF D>EF|G2 F E2 F|D2 B A>FE|D>EF A2 G|
F>GF D>FA|d>cB A2 B|A>GF E>FE|D3:|
d>cd e>dB|d>AF D>FA|d>cB A>FG|A3 A>Bc|
d>cd e>dc|d>AF d2 B|A>FD E>FE|D3:|

